X: 3
T: A Trip To Mabou Ridge
Z: Tate
S: https://thesession.org/tunes/12405#setting23590
R: strathspey
M: 4/4
L: 1/8
K: Amix
|: {ef}e>d | "A"c<{ef}eA>c {ef}[e2e2] {f}g2 | "D"f<ad>f "A"{ef}[e2e2] {ef}e>d | c<{ef}eA>c {ef}[e2e2] {f}g2 | "G"B<dG>B {B/c/}[d2D2] {ef}e>d |
"A"c<{ef}eA>c {ef}[e2e2] {f}g2 | "D"f<ad>f "A"{ef}[e2e2] {ef}e>d | c<{ef}eA>=c "G"B<dG>B | "A"[A2A2] [A/A/][A/A/][AA] [A2A2] :|
|: f>^g | "A"a>^ga>f {ef}[e2e2] {f}=g2 | "D"f<ad>f "A"{ef}[e2e2] f>^g | a>^ga>f "Em"{ef}e>f{gf}=g>e | "G"d<BG>B {B/c/}[d2D2] f>^g |
"A"a>^ga>f {ef}[e2e2] {f}=g2 | "D"f<ad>f "A"{ef}[e2e2] {ef}e>d | c<{ef}eA>=c "G"B<dG>B | "A"[A2A2] [A/A/][A/A/][AA] [A2A2] :|
|: {ef}e>d | "A"c<{ef}eA>c "Em"{ef}e>f{gf}g>e | "D"f<ad>f "A"{ef}e>f{ef}e>d | c<{ef}eA>c "Em"{ef}e>f{gf}g>e | "G"d<BG>B {B/c/}[d2D2] {ef}e>d |
"A"c<{ef}eA>c "Em"{ef}e>fg>e | "D"f<ad>f "A"{ef}e>f{ef}e>d | c>ea>=c "G"B<Gd>B | "A"[A2A2] [A/A/][A/A/][AA] [A2A2] :|
|: f>^g | "A"a>^ga>f "Em"{ef}e>f{gf}=g>e | "D"f<ad>f "Em"{ef}e>f{gf}g>e | "A"a>^ga>f "Em"{ef}e>f{gf}=g>e | "G"d<BG>B {B/c/}[d2D2] f>^g |
"A"a>^ga>f "Em"{ef}e>f{gf}=g>e | "D"f<ad>f "A"{ef}e>f{ef}e>d | c>ea>=c "G"B<Gd>B | "A"[A2A2] [A/A/][A/A/][AA] [A2A2] :|
